!!!CDT:
!!!PTL: Scherzi et arie a une, due, tre, et quattro voci per cantare nel clavicembalo ò altro simile istromento
!!!PPP: Venice
!!!PPR: Giacomo Vincenzi
!!!PDT: 1614
!!!RISM: C 2216
!!!rime:
!!!AGN: Madrigal
!!!SCT: Tsg06103b
!!!SCA: Tsg06103b
!!!voices:
!!!COM: Cifra, Antonio
!!!OTL: Era la notte, e 'l suo stellato velo
**kern	**fb	**kern	**text	**kern	**text	**kern	**text	**kern	**text
*part5	*part5	*part4	*part4	*part3	*part3	*part2	*part2	*part1	*part1
*staff5	*staff5	*staff4	*staff4	*staff3	*staff3	*staff2	*staff2	*staff1	*staff1
*I"[Basso continuo]	*	*I"[Basso]	*	*I"[Tenore]	*	*I"[Canto II]	*	*I"[Canto I]	*
*I'Bc	*	*I'B	*	*I'T	*	*I'C II	*	*I'C I	*
*oclefF4	*	*oclefF4	*	*oclefC4	*	*oclefC1	*	*oclefC1	*
*clefF4	*	*clefF4	*	*clefGv2	*	*clefG2	*	*clefG2	*
*k[b-]	*	*k[b-]	*	*k[b-]	*	*k[b-]	*	*k[b-]	*
*F:	*	*F:	*	*F:	*	*F:	*	*F:	*
*omet(C)	*	*omet(C)	*	*omet(C)	*	*omet(C)	*	*omet(C)	*
*M4/4	*	*M4/4	*	*M4/4	*	*M4/4	*	*M4/4	*
=1	=1	=1	=1	=1	=1	=1	=1	=1	=1
!!LO:TX:a:t=[Aria del Gazzella. A 4] Prima parte.
2G	.	1r	.	1r	.	1r	.	2.g	E-
[2G	.	.	.	.	.	.	.	.	.
.	.	.	.	.	.	.	.	8g	-ra
.	.	.	.	.	.	.	.	8g	la
=2	=2	=2	=2	=2	=2	=2	=2	=2	=2
4G]	.	1r	.	1r	.	1r	.	2g	not-
4F	.	.	.	.	.	.	.	.	.
4E	.	.	.	.	.	.	.	2g	-te,
4D	.	.	.	.	.	.	.	.	.
=3	=3	=3	=3	=3	=3	=3	=3	=3	=3
2.C	.	1r	.	1r	.	1r	.	8r	.
.	.	.	.	.	.	.	.	8e	e'l
.	.	.	.	.	.	.	.	8eL	suo
.	.	.	.	.	.	.	.	8fJ	.
.	.	.	.	.	.	.	.	8gL	.
.	.	.	.	.	.	.	.	8aJ	.
4BB-y	.	.	.	.	.	.	.	8fL	.
.	.	.	.	.	.	.	.	8gJ	.
=4	=4	=4	=4	=4	=4	=4	=4	=4	=4
4AA	.	1r	.	1r	.	1r	.	8aL	.
.	.	.	.	.	.	.	.	8b-yJ	.
4GG	.	.	.	.	.	.	.	8aL	.
.	.	.	.	.	.	.	.	8b-yJ	.
2FF	.	.	.	.	.	.	.	4.cc	.
.	.	.	.	.	.	.	.	8cc	stel-
=5	=5	=5	=5	=5	=5	=5	=5	=5	=5
2F	.	1r	.	1r	.	1r	.	8cc	-la-
.	.	.	.	.	.	.	.	8cc	-to
.	.	.	.	.	.	.	.	2dd	ve-
2E	.	.	.	.	.	.	.	.	.
.	.	.	.	.	.	.	.	16ccL	.
.	.	.	.	.	.	.	.	16b-y	.
.	.	.	.	.	.	.	.	16a	.
.	.	.	.	.	.	.	.	16gJ	.
=6	=6	=6	=6	=6	=6	=6	=6	=6	=6
2.D	.	1r	.	2r	.	1r	.	1a	-lo
.	.	.	.	4r	.	.	.	.	.
4D	.	.	.	[4f	Chia-	.	.	.	.
=7	=7	=7	=7	=7	=7	=7	=7	=7	=7
4D	.	1r	.	8f]	.	2r	.	1r	.
.	.	.	.	8f	-ro	.	.	.	.
4C	.	.	.	4e	spie-	.	.	.	.
[2BB-y	.	.	.	8dL	-ga-	4r	.	.	.
.	.	.	.	8eJ	.	.	.	.	.
.	.	.	.	8fL	.	[4ff	Chia-	.	.
.	.	.	.	8eJ	.	.	.	.	.
=8	=8	=8	=8	=8	=8	=8	=8	=8	=8
4BB-]	.	1r	.	8dL	.	8ff]	.	1r	.
.	.	.	.	8cJ	.	8ff	-ro	.	.
4C	.	.	.	8cL	.	4ee	spie-	.	.
.	.	.	.	16B-y	.	.	.	.	.
.	.	.	.	16AJ	.	.	.	.	.
4D	.	.	.	[2B-y	.	[2dd	-ga-	.	.
4E	.	.	.	.	.	.	.	.	.
=9	=9	=9	=9	=9	=9	=9	=9	=9	=9
[1F	.	1r	.	4B-]	.	4dd]	.	1r	.
.	.	.	.	2A	-va e	2cc	-va e	.	.
.	.	.	.	[4d	sen-	[4b-y	sen-	.	.
=10	=10	=10	=10	=10	=10	=10	=10	=10	=10
2F]	.	1r	.	4d]	.	4b-]	.	1r	.
.	.	.	.	2c	-za	2a	-za	.	.
2G	.	.	.	.	.	.	.	.	.
.	.	.	.	[4B-y	nu-	4g	nu-	.	.
=11	=11	=11	=11	=11	=11	=11	=11	=11	=11
2C	.	1r	.	4.B-]	.	4e	-be al-	1r	.
.	.	.	.	.	.	2g	-cu-	.	.
.	.	.	.	8A	-be al-	.	.	.	.
2D	.	.	.	2A	-cu-	.	.	.	.
.	.	.	.	.	.	4f#X	.	.	.
=12	=12	=12	=12	=12	=12	=12	=12	=12	=12
4GG	.	1r	.	2G	-na;	2g	-na;	2r	.
2G	.	.	.	.	.	.	.	.	.
.	.	.	.	2r	.	2r	.	4r	.
4F#X	.	.	.	.	.	.	.	4a	E
=13	=13	=13	=13	=13	=13	=13	=13	=13	=13
4G	.	4r	.	1r	.	1r	.	8b-yL	già,
.	.	.	.	.	.	.	.	16cc	.
.	.	.	.	.	.	.	.	16b-yJ	.
4A	.	4A	E	.	.	.	.	8aL	.
.	.	.	.	.	.	.	.	8gJ	.
[2B-y	.	8B-yL	già	.	.	.	.	2f	.
.	.	8cJ	.	.	.	.	.	.	.
.	.	8dL	.	.	.	.	.	.	.
.	.	8cJ	.	.	.	.	.	.	.
=14	=14	=14	=14	=14	=14	=14	=14	=14	=14
4B-]	.	8B-yL	.	1r	.	1r	.	4r	.
.	.	16c	.	.	.	.	.	.	.
.	.	16B-yJ	.	.	.	.	.	.	.
4A	.	8AL	.	.	.	.	.	4a	E
.	.	16B-y	.	.	.	.	.	.	.
.	.	16AJ	.	.	.	.	.	.	.
4G	.	8GL	.	.	.	.	.	8b-yL	già
.	.	16A	.	.	.	.	.	16cc	.
.	.	16GJ	.	.	.	.	.	16b-yJ	.
4F	.	8FL	.	.	.	.	.	8aL	.
.	.	16G	.	.	.	.	.	16b-y	.
.	.	16FJ	.	.	.	.	.	16aJ	.
=15	=15	=15	=15	=15	=15	=15	=15	=15	=15
2.E-X	.	8E-XL	.	1r	.	1r	.	8gL	.
.	.	8FJ	.	.	.	.	.	8aJ	.
.	.	8GL	.	.	.	.	.	8b-yL	.
.	.	8FJ	.	.	.	.	.	8aJ	.
.	.	2E-X	.	.	.	.	.	4g	.
4E-i	.	.	.	.	.	.	.	[4b-y	spar-
=16	=16	=16	=16	=16	=16	=16	=16	=16	=16
4D	.	4D	spar-	1r	.	1r	.	4b-]	.
4C	.	4C	-gea	.	.	.	.	4a	-gea
2BB-y	.	4BB-y	rai	.	.	.	.	4b-y	rai
.	.	8BB-y	lu-	.	.	.	.	8f	lu-
.	.	8BB-y	-mi-	.	.	.	.	8f	-mi-
=17	=17	=17	=17	=17	=17	=17	=17	=17	=17
2E-X	.	4.E-X	-no-	1r	.	1r	.	8g	-no-
.	.	.	.	.	.	.	.	8a	-si e
.	.	.	.	.	.	.	.	2b-y	ge-
.	.	8D	-si e	.	.	.	.	.	.
2F	.	2F	ge-	.	.	.	.	.	.
.	.	.	.	.	.	.	.	4a	.
=18	=18	=18	=18	=18	=18	=18	=18	=18	=18
2BB-y	.	2BB-y	-lo	2r	.	8r	.	2b-y	-lo
.	.	.	.	.	.	8f	Di	.	.
.	.	.	.	.	.	8f	vi-	.	.
.	.	.	.	.	.	8e-i	-ve	.	.
2B-y	.	2r	.	8r	.	4d	per-	2r	.
.	.	.	.	8B-y	Di	.	.	.	.
.	.	.	.	8B-y	vi-	4d	-le,	.	.
.	.	.	.	8A	-ve	.	.	.	.
=19	=19	=19	=19	=19	=19	=19	=19	=19	=19
2G	.	1r	.	4G	per-	8r	.	8r	.
.	.	.	.	.	.	8g	<Di	8b-y	Di
.	.	.	.	4G	-le,	8g	vi-	8b-y	vi-
.	.	.	.	.	.	8f	-ve	8a	-ve
2c	.	.	.	8r	.	4enXi	per-	4g	per-
.	.	.	.	8c	<Di	.	.	.	.
.	.	.	.	8c	vi-	4e	-le,>	4g	-le,
.	.	.	.	8B-y	-ve	.	.	.	.
=20	=20	=20	=20	=20	=20	=20	=20	=20	=20
2F	.	8r	.	4A	per-	2r	.	2r	.
.	.	8F	Di	.	.	.	.	.	.
.	.	8F	vi-	4A	-le>	.	.	.	.
.	.	8E	-ve	.	.	.	.	.	.
2D	.	4D	per-	2r	.	8r	.	8r	.
.	.	.	.	.	.	8f	<Di	8dd	<Di
.	.	4D	-le	.	.	8f	vi-	8dd	vi-
.	.	.	.	.	.	8e	-ve	8cc	-ve
=21	=21	=21	=21	=21	=21	=21	=21	=21	=21
2G	.	2G	la	2r	.	4d	per-	4b-y	per-
.	.	.	.	.	.	4d	-le>	4bnX	-le>
[2C	.	2C	sor-	4e-X	la	4.g	la	4.cc	la
.	.	.	.	4d	sor-	.	.	.	.
.	.	.	.	.	.	8f	sor-	8b-i	sor-
=22	=22	=22	=22	=22	=22	=22	=22	=22	=22
2C]	.	4.C	-gen-	4c	-gen-	4e	-gen-	8aL	-gen-
.	.	.	.	.	.	.	.	8gJ	.
.	.	.	.	4B-y	-te	4e	-te	2g	-te
.	.	8C	-te	.	.	.	.	.	.
2D	.	2D	lu-	2A	lu-	2d	lu-	.	.
.	.	.	.	.	.	.	.	4f#X	lu-
=23	=23	=23	=23	=23	=23	=23	=23	=23	=23
4GG	.	2GG	-na,	2G	-na,	2d	-na,	2g	-na,
2G	.	.	.	.	.	.	.	.	.
.	.	2r	.	4r	.	2r	.	2r	.
4F#X	.	.	.	4A	E	.	.	.	.
=24	=24	=24	=24	=24	=24	=24	=24	=24	=24
4G	.	1r	.	8B-yL	già	1r	.	1r	.
.	.	.	.	16c	.	.	.	.	.
.	.	.	.	16dJ	.	.	.	.	.
4A	.	.	.	8cL	.	.	.	.	.
.	.	.	.	16d	.	.	.	.	.
.	.	.	.	16e-XJ	.	.	.	.	.
[2B-y	.	.	.	8dL	.	.	.	.	.
.	.	.	.	16e-i	.	.	.	.	.
.	.	.	.	16fJ	.	.	.	.	.
.	.	.	.	8e-iL	.	.	.	.	.
.	.	.	.	16f	.	.	.	.	.
.	.	.	.	16gJ	.	.	.	.	.
=25	=25	=25	=25	=25	=25	=25	=25	=25	=25
4B-]	.	1r	.	2f	.	1r	.	1r	.
4A	.	.	.	.	.	.	.	.	.
4G	.	.	.	4B-y	spar-	.	.	.	.
4F	.	.	.	4A	-gea	.	.	.	.
=26	=26	=26	=26	=26	=26	=26	=26	=26	=26
1E-X	.	1r	.	8GL	rai	1r	.	1r	.
.	.	.	.	8AJ	.	.	.	.	.
.	.	.	.	8GL	.	.	.	.	.
.	.	.	.	8AJ	.	.	.	.	.
.	.	.	.	2B-y	.	.	.	.	.
=27	=27	=27	=27	=27	=27	=27	=27	=27	=27
4D	.	1r	.	4B-y	lu-	1r	.	1r	.
4C	.	.	.	4c	-mi-	.	.	.	.
2BB-y	.	.	.	8dL	-no-	.	.	.	.
.	.	.	.	8cJ	.	.	.	.	.
.	.	.	.	8B-yL	.	.	.	.	.
.	.	.	.	8AJ	.	.	.	.	.
=28	=28	=28	=28	=28	=28	=28	=28	=28	=28
2E-X	.	1r	.	4G	.	1r	.	1r	.
.	.	.	.	4B-y	-si e	.	.	.	.
2F	.	.	.	4.B-y	ge-	.	.	.	.
.	.	.	.	8A	.	.	.	.	.
=29	=29	=29	=29	=29	=29	=29	=29	=29	=29
2BB-y	.	1r	.	8B-y	-lo	2r	.	2r	.
.	.	.	.	8F	Di	.	.	.	.
.	.	.	.	8G	vi-	.	.	.	.
.	.	.	.	8A	-ve	.	.	.	.
2B-y	.	.	.	2B-y	per-	4d	Di	4f	Di
.	.	.	.	.	.	8e	vi-	8g	vi-
.	.	.	.	.	.	8f	-ve	8a	-ve
=30	=30	=30	=30	=30	=30	=30	=30	=30	=30
2G	.	2r	.	8G	-le,	2g	per-	2b-y	per-
.	.	.	.	8G	<Di	.	.	.	.
.	.	.	.	8A	vi-	.	.	.	.
.	.	.	.	8B-y	-ve	.	.	.	.
2c	.	4C	Di	2c	per-	2e	-le,	2g	-le,
.	.	8D	vi-	.	.	.	.	.	.
.	.	8E	-ve	.	.	.	.	.	.
=31	=31	=31	=31	=31	=31	=31	=31	=31	=31
2F	.	2F	per-	2A	-le>	8r	.	8r	.
.	.	.	.	.	.	8cc	<Di	8a	<Di
.	.	.	.	.	.	8dd	vi-	8b-y	vi-
.	.	.	.	.	.	8ee	-ve	8cc	-ve
2D	.	2D	-le	2r	.	2ff	per-	2dd	per-
=32	=32	=32	=32	=32	=32	=32	=32	=32	=32
2G	.	2G	la	2r	.	2dd	-le>	4bnX	-le>
.	.	.	.	.	.	.	.	4dd	la
[2C	.	2C	sor-	4e-X	la	4g	la	4cc	sor-
.	.	.	.	4d	sor-	4f	sor-	4b-i	-gen-
=33	=33	=33	=33	=33	=33	=33	=33	=33	=33
4C]	.	4C	-gen-	4.c	-gen-	4e-X	-gen-	4a	-te
4C	.	4C	-te	.	.	4e-i	-te	2g	lu-
.	.	.	.	8B-y	-te	.	.	.	.
2D	.	2D	lu-	2A	lu-	2d	lu-	.	.
.	.	.	.	.	.	.	.	4f#X	.
=34	=34	=34	=34	=34	=34	=34	=34	=34	=34
1GG	.	1GG	-na.	1G	-na.	1d	-na.	1g	-na.
=35||	=35||	=35||	=35||	=35||	=35||	=35||	=35||	=35||	=35||
!	!	!	!	!	!	!	!	!LO:TX:a:t=Seconda parte.	!
2G	.	1r	.	4r	.	1r	.	1r	.
.	.	.	.	4G	L'in-	.	.	.	.
[2G	.	.	.	4G	-na-	.	.	.	.
.	.	.	.	4A	-mo-	.	.	.	.
=36	=36	=36	=36	=36	=36	=36	=36	=36	=36
4G]	.	1r	.	4.BnX	-ra-	1r	.	1r	.
4F	.	.	.	.	.	.	.	.	.
.	.	.	.	8A	-ta	.	.	.	.
4E	.	.	.	[2c	Don-	.	.	.	.
4D	.	.	.	.	.	.	.	.	.
=37	=37	=37	=37	=37	=37	=37	=37	=37	=37
2.C	.	1r	.	8c]L	.	1r	.	1r	.
.	.	.	.	8dJ	.	.	.	.	.
.	.	.	.	8cL	.	.	.	.	.
.	.	.	.	8dJ	.	.	.	.	.
.	.	.	.	8eL	.	.	.	.	.
.	.	.	.	8fJ	.	.	.	.	.
4BB-y	.	.	.	8dL	.	.	.	.	.
.	.	.	.	8eJ	.	.	.	.	.
=38	=38	=38	=38	=38	=38	=38	=38	=38	=38
4AA	.	1r	.	8fL	.	1r	.	1r	.
.	.	.	.	8eJ	.	.	.	.	.
4GG	.	.	.	8eL	.	.	.	.	.
.	.	.	.	16d	.	.	.	.	.
.	.	.	.	16eJ	.	.	.	.	.
[2FF	.	.	.	4f	.	.	.	.	.
.	.	.	.	4c	-na i-	.	.	.	.
=39	=39	=39	=39	=39	=39	=39	=39	=39	=39
4FF]	6	1r	.	8dL	-va	1r	.	1r	.
.	.	.	.	16c	.	.	.	.	.
.	.	.	.	16B-yJ	.	.	.	.	.
4F	6	.	.	16AL	.	.	.	.	.
.	.	.	.	16GJ	.	.	.	.	.
.	.	.	.	8FJL	col	.	.	.	.
2E	4 6	.	.	2G	cie-	.	.	.	.
=40	=40	=40	=40	=40	=40	=40	=40	=40	=40
1D	.	1r	.	1A	-lo	1r	.	1r	.
=41	=41	=41	=41	=41	=41	=41	=41	=41	=41
4D	.	1r	.	1r	.	4r	.	4r	.
4C	.	.	.	.	.	8a	Le	8cc	Le
.	.	.	.	.	.	8a	sue	8cc	sue
[2BB-y	.	.	.	.	.	8b-yL	fiam-	8ddL	fiam-
.	.	.	.	.	.	8ccJ	.	8eeJ	.
.	.	.	.	.	.	8b-yL	.	8ddL	.
.	.	.	.	.	.	8ccJ	.	8eeJ	.
=42	=42	=42	=42	=42	=42	=42	=42	=42	=42
4BB-]	.	1r	.	1r	.	2.dd	.	2.ff	.
4C	.	.	.	.	.	.	.	.	.
4D	.	.	.	.	.	.	.	.	.
4E	.	.	.	.	.	8cc	-me	8ee	-me
.	.	.	.	.	.	8b-y	sfo-	8dd	sfo-
=43	=43	=43	=43	=43	=43	=43	=43	=43	=43
[1F	.	1r	.	1r	.	8aL	-gan-	8ccL	-gan-
.	.	.	.	.	.	8b-yJ	.	8ddJ	.
.	.	.	.	.	.	8aL	.	8ccL	.
.	.	.	.	.	.	8b-yJ	.	8b-yJ	.
.	.	.	.	.	.	8ccL	.	8aL	.
.	.	.	.	.	.	8ddJ	.	8b-yJ	.
.	.	.	.	.	.	8ccL	.	8aL	.
.	.	.	.	.	.	8b-yJ	.	8gJ	.
=44	=44	=44	=44	=44	=44	=44	=44	=44	=44
2F]	.	1r	.	1r	.	8aL	.	8fL	.
.	.	.	.	.	.	16b-y	.	8gJ	.
.	.	.	.	.	.	16ccJ	.	.	.
.	.	.	.	.	.	8b-yL	.	8fL	.
.	.	.	.	.	.	8aJ	.	8eJ	.
2G	.	.	.	.	.	[2b-y	.	4.d	.
.	.	.	.	.	.	.	.	8d	-do ad
=45	=45	=45	=45	=45	=45	=45	=45	=45	=45
2C	.	1r	.	1r	.	8b-]	.	8e	u-
.	.	.	.	.	.	8a	-do ad	8f	-na ad
.	.	.	.	.	.	8a	u-	2g	u-
.	.	.	.	.	.	8g	-na ad	.	.
2D	.	.	.	.	.	2a	u-	.	.
.	.	.	.	.	.	.	.	4f#X	.
=46	=46	=46	=46	=46	=46	=46	=46	=46	=46
4GG	.	1r	.	1r	.	2g	-na;	4g	-na;
2G	.	.	.	.	.	.	.	4b-y	E
.	.	.	.	.	.	2r	.	4b-y	se-
4F#X	.	.	.	.	.	.	.	4a	-cre-
=47	=47	=47	=47	=47	=47	=47	=47	=47	=47
4G	.	2r	.	1r	.	1r	.	4.g	-ta-
4A	.	.	.	.	.	.	.	.	.
.	.	.	.	.	.	.	.	8f	-rii
[2B-y	.	4r	.	.	.	.	.	8fL	del
.	.	.	.	.	.	.	.	8eJ	.
.	.	4B-y	E	.	.	.	.	8dL	.
.	.	.	.	.	.	.	.	8eJ	.
=48	=48	=48	=48	=48	=48	=48	=48	=48	=48
4B-]	.	4B-y	se-	1r	.	1r	.	8fL	.
.	.	.	.	.	.	.	.	8gJ	.
4A	.	4A	-cre-	.	.	.	.	8fL	.
.	.	.	.	.	.	.	.	16g	.
.	.	.	.	.	.	.	.	16aJ	.
4G	.	4G	-ta-	.	.	.	.	8b-yL	.
.	.	.	.	.	.	.	.	8aJ	.
4F	.	4F	-rii	.	.	.	.	8aL	.
.	.	.	.	.	.	.	.	16g	.
.	.	.	.	.	.	.	.	16fJ	.
=49	=49	=49	=49	=49	=49	=49	=49	=49	=49
2.E-i	.	8E-XL	del	1r	.	1r	.	8gL	.
.	.	8FJ	.	.	.	.	.	8aJ	.
.	.	8E-iL	.	.	.	.	.	8gL	.
.	.	8FJ	.	.	.	.	.	8aJ	.
.	.	8GL	.	.	.	.	.	8b-yL	.
.	.	8AJ	.	.	.	.	.	8ccJ	.
4E-i	.	8GL	.	.	.	.	.	8b-yL	.
.	.	8AJ	.	.	.	.	.	8ccJ	.
=50	=50	=50	=50	=50	=50	=50	=50	=50	=50
4D	.	8B-yL	.	1r	.	1r	.	8ddL	.
.	.	8AJ	.	.	.	.	.	8ccJ	.
4C	.	8AL	.	.	.	.	.	8ccL	.
.	.	16G	.	.	.	.	.	16b-y	.
.	.	16AJ	.	.	.	.	.	16ccJ	.
2BB-y	.	4.B-y	.	.	.	.	.	4.dd	.
.	.	8BB-y	suo a-	.	.	.	.	8dd	suo a-
=51	=51	=51	=51	=51	=51	=51	=51	=51	=51
2E-X	.	4E-i	-mo-	1r	.	1r	.	8cc	-mo-
.	.	.	.	.	.	.	.	8b-y	-re an-
.	.	4E-i	-re an-	.	.	.	.	2b-y	-ti-
2F	.	2F	-ti-	.	.	.	.	.	.
.	.	.	.	.	.	.	.	4a	.
=52	=52	=52	=52	=52	=52	=52	=52	=52	=52
2BB-y	.	1BB-y	-co	1r	.	1r	.	2b-y	-co
2B-y	.	.	.	.	.	.	.	4r	.
.	.	.	.	.	.	.	.	4dd	Fea i
=53	=53	=53	=53	=53	=53	=53	=53	=53	=53
2G	.	1r	.	2r	.	4r	.	4b-y	mu-
.	.	.	.	.	.	4g	Fea i	4bnX	-ti
2c	.	.	.	4r	.	4e	mu-	4cc	cam-
.	.	.	.	4c	Fea i	4e	-ti	4g	-pi,
=54	=54	=54	=54	=54	=54	=54	=54	=54	=54
2F	.	4r	.	2A	mu-	4f	cam-	4r	.
.	.	4F	Fea i	.	.	4c	-pi	4a	<Fea i
2D	.	4D	mu-	4A	-ti	4r	.	4f#X	mu-
.	.	4D	-ti	[4d	cam-	4a	e	4f#i	-ti
=55	=55	=55	=55	=55	=55	=55	=55	=55	=55
2G	.	4G	cam-	4d]	.	4b-y	quel	4g	cam-
.	.	4GG	-pi e	4d	-pi e	4bnX	si-	4g	-pi> e
[2C	.	4.C	quel	4.e-X	quel	[2cc	-len-	4.g	quel
.	.	8C	si-	8e-i	si-	.	.	8g	si-
=56	=56	=56	=56	=56	=56	=56	=56	=56	=56
4C]	.	4C	-len-	4e-i	-len-	4cc]	.	8a	-len-
.	.	.	.	.	.	.	.	8g	-tio a-
4C	.	4C	-tio a-	4e-i	-tio a-	4cc	-tio a-	2g	-mi-
2D	.	2D	-mi-	2d	-mi-	2a	-mi-	.	.
.	.	.	.	.	.	.	.	4f#X	.
=57	=57	=57	=57	=57	=57	=57	=57	=57	=57
4GG	.	2GG	-co,	2d	-co,	2g	-co,	2g	-co,
2G	.	.	.	.	.	.	.	.	.
.	.	2r	.	2r	.	2r	.	2r	.
4F#X	.	.	.	.	.	.	.	.	.
=58	=58	=58	=58	=58	=58	=58	=58	=58	=58
4G	.	1r	.	1r	.	2r	.	1r	.
4A	.	.	.	.	.	.	.	.	.
[2B-y	.	.	.	.	.	4r	.	.	.
.	.	.	.	.	.	4dd	E	.	.
=59	=59	=59	=59	=59	=59	=59	=59	=59	=59
4B-]	.	1r	.	1r	.	4.dd	se-	1r	.
4A	.	.	.	.	.	.	.	.	.
.	.	.	.	.	.	8cc	-cre-	.	.
4G	.	.	.	.	.	4.cc	-ta-	.	.
4F	.	.	.	.	.	.	.	.	.
.	.	.	.	.	.	8b-y	-rii	.	.
=60	=60	=60	=60	=60	=60	=60	=60	=60	=60
2.E-X	.	1r	.	1r	.	4b-y	del	1r	.
.	.	.	.	.	.	8ccL	.	.	.
.	.	.	.	.	.	8ddJ	.	.	.
.	.	.	.	.	.	[2ee-X	.	.	.
4E-i	.	.	.	.	.	.	.	.	.
=61	=61	=61	=61	=61	=61	=61	=61	=61	=61
4D	.	1r	.	1r	.	4ee-]	.	1r	.
4C	.	.	.	.	.	4ee-i	suo a-	.	.
2BB-y	.	.	.	.	.	8ddL	-mo-	.	.
.	.	.	.	.	.	8ee-iJ	.	.	.
.	.	.	.	.	.	8ddL	.	.	.
.	.	.	.	.	.	8ccJ	.	.	.
=62	=62	=62	=62	=62	=62	=62	=62	=62	=62
2E-X	.	1r	.	1r	.	4.b-y	.	1r	.
.	.	.	.	.	.	8cc	-re an-	.	.
2F	.	.	.	.	.	2cc	-ti-	.	.
=63	=63	=63	=63	=63	=63	=63	=63	=63	=63
2BB-y	.	1r	.	1r	.	2b-y	-co	1r	.
2B-y	.	.	.	.	.	4r	.	.	.
.	.	.	.	.	.	4dd	Fea i	.	.
=64	=64	=64	=64	=64	=64	=64	=64	=64	=64
2G	.	1r	.	2r	.	4bnX	mu-	4r	.
.	.	.	.	.	.	4bni	-ti	4g	Fea i
2c	.	.	.	4r	.	4cc	cam-	4e	mu-
.	.	.	.	4c	Fea i	4g	-pi,	4e	-ti
=65	=65	=65	=65	=65	=65	=65	=65	=65	=65
2F	.	4r	.	2A	mu-	4r	.	4f	cam-
.	.	4F	Fea i	.	.	4a	<Fea i	4c	-pi
2D	.	4D	mu-	4A	-ti	4f	mu-	4r	.
.	.	4D	-ti	[4d	cam-	4f#X	-ti	4a	e
=66	=66	=66	=66	=66	=66	=66	=66	=66	=66
2G	.	4G	cam-	4d]	.	4g	cam-	4bnX	quel
.	.	4GG	-pi e	4d	-pi e	4g	-pi> e	4bni	si-
[2C	.	4.C	quel	4.e-X	quel	4.g	quel	[2cc	-len-
.	.	8C	si-	8e-i	si-	8g	si-	.	.
=67	=67	=67	=67	=67	=67	=67	=67	=67	=67
2C]	.	4C	-len-	4e-i	-len-	4g	-len-	4cc]	.
.	.	4C	-tio a-	4e-i	-tio a-	2g	-tio a-	16ccL	-tio a-
.	.	.	.	.	.	.	.	16a	.
.	.	.	.	.	.	.	.	16b-i	.
.	.	.	.	.	.	.	.	16ccJ	.
2D	.	2D	-mi-	2d	-mi-	.	.	2a	-mi-
.	.	.	.	.	.	4f#X	-mi-	.	.
=68	=68	=68	=68	=68	=68	=68	=68	=68	=68
1GGl	.	1GGl	-co.	1dl	-co.	1gl	-co.	1gl	-co.
==	==	==	==	==	==	==	==	==	==
*-	*-	*-	*-	*-	*-	*-	*-	*-	*-
!!!system-decoration: [*]
!!!RDF**kern: i = editorial accidental
!!!RDF**kern: l = terminal long
!!!ENC: Emiliano Ricciardi
!!!END:
!!!EED: Ricciardi, Emiliano
!!!EEV: 2020/07/28
!!!YEC: Copyright 2018 Emiliano Ricciardi, All Rights Reserved
!!!ONB: Translated from MusicXML on 2020/07/28
!!@@BEGIN:	VERSEDATA
!!@CATALOGNUM:	Tsg06103
!!@LAST_MODIFIED: 2020/07/12
!!@TITLE:		Era la notte e 'l suo stellato velo
!!@CANTO:		VI
!!@OTTAVA:	103
!!@MANUSRC:	G-Al, G-Au, G-Br<sub>1</sub>, G-Br<sub>2</sub>, G-Cv, G-Es<sub>1</sub>, G-Es<sub>2</sub>, G-Es<sub>3</sub>, G-F, G-Fr, G-Fr<sub>1</sub>, G-Fr<sub>2</sub>, G-Mc, G-Mc<sub>1</sub>, G-Mg, G-Mr, G-Mt, G-N
!!@PRINTSRC:	G-1580CM, G-1581B, G-1581CV, G-1581R, G-1581MR, G-1581P, G-1581V, G-1581V<sub>bis</sub>, G-1582C, G-1582M, G-1582MC, G-1582P, G-1582SC, G-1582SC<sub>bis</sub>, G-1583S, G-1584O, G-1584S, G-1585C, G-1585S, G-1588S, G-1589S, G-1590B, G-1590S, G-1592S, G-1593S, G-1594C, G-1595C, G-1597C, G-1598C, G-1599C, G-1600C, G-1600S, G-1601C, G-1601R, G-1602C, G-1604C, G-1604Cl, G-1604F, G-1604P, G-1606B, G-1606B<sub>bis</sub>, G-1606L, G-1607ZR, G-1608DP, G-1609GC, G-1610M, G-1611S, G-1611V, G-1612P, G-1613M, G-1613P, G-1613V, G-1615P, G-1616M, G-1617P, G-1619B, G-1619V, G-1620M, G-1620S, G-1621R, G-1624I, G-1624MT, G-1625C, G-1625S, G-1625SS, G-1626C, G-1626Co, G-1627M, G-1628T, G-1628Tu, G-1630L, G-1630T, G-1632FT, G-1639CF, G-1642M, G-1643I, G-1644P, G-1644S
!!@@BEGIN:	VERSES
!!@ABOUTIT:
!!@ABOUTEN:
!!@EDITOR:	Angelo Solerti
!!@EDITION_TITLE: Gerusalemme liberata. Poema eroico di Torquato Tasso. Edizione critica sui manoscritti e le prime stampe.
!!@EDITION_LOC:	Florence
!!@EDITION_PUB:	G. Barbera
!!@EDITION_DATE:  1895
!!@EDITION_VOL:	2
!!@EDITION_PAGE:  246-47
!!@TRANSLATOR:	Emiliano Ricciardi and Amyrose McCue Gill
!!@VERSE:
!!	Era la notte, e ’l suo stellato velo
!!	Chiaro spiegava e senza nube alcuna;
!!	E giá spargea rai luminosi e gelo
!!	Di vive perle la sorgente luna.
!!	L’innamorata donna iva co 'l cielo
!!	Le sue fiamme sfogando ad una ad una;
!!	E secretari del suo amore antico
!!	Fea i muti campi e quel silenzio amico.
!!@MVERSE_DATE: 20230824
!!@MVERSE:
!!	E||ra la not||te,_e_’l suo stel|la||to ve||lo		=a++ (_ when there is ’?)
!!	Chia||ro spie|ga||va_e sen||za nu||be_al|cu||na;	=b
!!	E giá spar|gea|| rai lu|mi|no||si_e ge||lo		=a
!!	Di vi||ve per||le la sor|gen||te lu||na.		=b
!!	L’in|na|mo|ra||ta don||na_i|va co_'l cie||lo		=a
!!	Le sue fiam||me sfo|gan||do_ad u||na_ad u||na;		=b
!!	E se|cre|ta||ri del suo_a|mo||re_an|ti||co		=c+
!!	Fea_i mu||ti cam||pi_e quel si|len||zio_a|mi||co.	=c
!!@TVERSE:
!!	It was night, and its starry veil
!!	Was spreading clear and without a single cloud;
!!	And already luminous rays and frost
!!	Of living pearls the rising moon was scattering.
!!	The woman in love there [sent] to the sky
!!	Her flames pouring out one by one;
!!	And the secret places of her old love
!!	Made the fields mute and that silence a friend.
!!@@END:		VERSES
!!@OTHER_CRIT_ED:  Torquato Tasso, <i>Gerusalemme liberata</i>, ed. Lanfranco Caretti, 2 vols. (Bari: Laterza, 1967).
!!@ATTRIBUTION_ABOUT:
!!@DATING:	mid-1560s through 1570s
!!@DEDICATEE:	Duke Alfonso II d'Este
!!@COMMENTARY:
!!@@END:		VERSEDATA
!!@@BEGIN: SETTING
!!@CATALOGNUM:	Tsg06103b
!!@CANTO:		VI
!!@OTTAVA:	103
!!@TITLE:	Era la notte, e 'l suo stellato velo
!!@COMPOSER:	Cifra, Antonio
!!@PARTS:		1-2 (verses 1-4; 5-8) of 4
!!@PRINCEPSTITLE:	Scherzi et arie a une, due, tre, et quattro voci per cantare nel clavicembalo ò altro simile istromento
!!@PRINCEPSLOC:	Venice
!!@NORMLOC:	Venice
!!@NORMPUB:	Giacomo Vincenzi
!!@NORMPUBSHORT:	G. Vincenzi
!!@PRINCEPSPUB:	Giacomo Vincenzi
!!@PRINCEPSYEAR:	1614
!!@PRINCEPSRISM:	C 2216
!!@OVOICES:	4+bc
!!@EXTANTVOICES:	4+bc
!!@OMENSURATION:	C
!!@OCLEFS:	C1,C1,C4,F4,F4
!!@OTIME:		
!!@OKEYSIG:	b-
!!@FINAL:		(G)(G)G
!!@TIMPEDITOR:	Ricciardi, Emiliano
!!@REPRINTS:	
!!@@END: SETTING
